apps/16/gnome-desktop-config.svg

<?xml version="1.0" encoding="UTF-8" standalone="no"?>
<!-- Created with Inkscape (http://www.inkscape.org/) -->

<svg
   xmlns:svg="http://www.w3.org/2000/svg"
   xmlns="http://www.w3.org/2000/svg"
   xmlns:xlink="http://www.w3.org/1999/xlink"
   version="1.1"
   width="16"
   height="16"
   id="svg4716">
  <defs
     id="defs4718">
    <linearGradient
       id="linearGradient3491">
      <stop
         id="stop3493"
         style="stop-color:#7e7e7e;stop-opacity:1"
         offset="0" />
      <stop
         id="stop3495"
         style="stop-color:#6f6f6f;stop-opacity:1"
         offset="1" />
    </linearGradient>
    <linearGradient
       x1="119.06093"
       y1="7.7596231"
       x2="64.495316"
       y2="65.393135"
       id="linearGradient4693"
       xlink:href="#linearGradient3491"
       gradientUnits="userSpaceOnUse"
       gradientTransform="matrix(0.1253371,0,0,0.1253371,-0.00973085,-0.03342299)" />
    <linearGradient
       x1="63.9995"
       y1="3.1001"
       x2="63.9995"
       y2="122.8994"
       id="linearGradient5546"
       gradientUnits="userSpaceOnUse">
      <stop
         id="stop5548"
         style="stop-color:#d8d8d8;stop-opacity:1"
         offset="0" />
      <stop
         id="stop5550"
         style="stop-color:white;stop-opacity:1"
         offset="1" />
    </linearGradient>
    <linearGradient
       x1="39.980453"
       y1="3.4715931"
       x2="39.980453"
       y2="14.369016"
       id="linearGradient4691"
       xlink:href="#linearGradient5546"
       gradientUnits="userSpaceOnUse"
       gradientTransform="matrix(0.3529738,0,0,0.3488491,-0.7165855,0.07030802)" />
    <linearGradient
       id="linearGradient3087-697-449-219-528">
      <stop
         id="stop3326"
         style="stop-color:#484848;stop-opacity:1"
         offset="0" />
      <stop
         id="stop3328"
         style="stop-color:#878787;stop-opacity:1"
         offset="0" />
      <stop
         id="stop3330"
         style="stop-color:#6b6b6b;stop-opacity:1"
         offset="0" />
      <stop
         id="stop3332"
         style="stop-color:#4d4d4d;stop-opacity:1"
         offset="0.75" />
      <stop
         id="stop3334"
         style="stop-color:#4e4e4e;stop-opacity:1"
         offset="1" />
    </linearGradient>
    <linearGradient
       x1="9.7503242"
       y1="32.28376"
       x2="16.915297"
       y2="39.443218"
       id="linearGradient4688"
       xlink:href="#linearGradient3087-697-449-219-528"
       gradientUnits="userSpaceOnUse"
       gradientTransform="matrix(0.36121,0,0,0.3610355,-0.8614017,-0.7372702)" />
    <linearGradient
       id="linearGradient2257-675-775-707-398">
      <stop
         id="stop3344"
         style="stop-color:#bababa;stop-opacity:1"
         offset="0" />
      <stop
         id="stop3346"
         style="stop-color:#bababa;stop-opacity:0"
         offset="1" />
    </linearGradient>
    <linearGradient
       x1="12.004697"
       y1="35.688461"
       x2="10.650805"
       y2="33.194965"
       id="linearGradient4685"
       xlink:href="#linearGradient2257-675-775-707-398"
       gradientUnits="userSpaceOnUse"
       gradientTransform="matrix(0.4142578,-0.01083812,0.01084336,0.4140577,-1.2494655,-2.7468101)" />
    <radialGradient
       cx="24.475599"
       cy="46.2295"
       r="38.528702"
       id="XMLID_27_"
       gradientUnits="userSpaceOnUse">
      <stop
         id="stop41"
         style="stop-color:#c7c7c7;stop-opacity:1"
         offset="0" />
      <stop
         id="stop43"
         style="stop-color:#e8e8e8;stop-opacity:1"
         offset="0.6742" />
      <stop
         id="stop45"
         style="stop-color:#eaeaea;stop-opacity:1"
         offset="0.7658" />
      <stop
         id="stop47"
         style="stop-color:#f1f1f1;stop-opacity:1"
         offset="0.79879999" />
      <stop
         id="stop49"
         style="stop-color:#fcfcfc;stop-opacity:1"
         offset="0.8222" />
      <stop
         id="stop51"
         style="stop-color:white;stop-opacity:1"
         offset="0.8258" />
    </radialGradient>
    <radialGradient
       cx="2.3732829"
       cy="6.4451985"
       r="3.859375"
       fx="2.3732829"
       fy="6.4451985"
       id="radialGradient4700"
       xlink:href="#XMLID_27_"
       gradientUnits="userSpaceOnUse"
       gradientTransform="matrix(1.6434439,0,0,1.4989455,-1.7981629,-3.4071505)" />
    <linearGradient
       x1="98.114304"
       y1="78.294899"
       x2="81.368301"
       y2="97.540298"
       id="XMLID_28_-22"
       gradientUnits="userSpaceOnUse"
       gradientTransform="matrix(1.0737774,0,0,1.0737774,-0.375232,-8.763203)">
      <stop
         id="stop3800"
         style="stop-color:#9a9a9a;stop-opacity:1"
         offset="0.0449" />
      <stop
         id="stop3802"
         style="stop-color:#adadad;stop-opacity:1"
         offset="0.16850001" />
      <stop
         id="stop3804"
         style="stop-color:#4b4b4b;stop-opacity:1"
         offset="1" />
    </linearGradient>
    <linearGradient
       x1="98.114304"
       y1="78.294899"
       x2="81.368301"
       y2="97.540298"
       id="linearGradient4001"
       xlink:href="#XMLID_28_-22"
       gradientUnits="userSpaceOnUse"
       gradientTransform="matrix(0.1343184,0,0,0.1303509,-0.688891,-0.03810385)" />
  </defs>
  <g
     id="layer1">
    <path
       d="M 7.1812046,9.8162814 C 7.5162057,9.532496 12.519931,4.3115976 12.519931,4.3115976 l 1.23541,0 1.943849,-2.0053941 -2.005395,-2.00539414 -2.005394,2.13919334 0,1.2209721 -5.2421265,5.2545404 C 6.2036084,9.1553496 6.8723539,10.077918 7.1812046,9.8162814 z"
       id="path2144"
       style="fill:url(#linearGradient4691);fill-opacity:1;fill-rule:nonzero;stroke:url(#linearGradient4693);stroke-width:0.60161823;stroke-linecap:butt;stroke-linejoin:round;stroke-miterlimit:4;stroke-opacity:1;stroke-dasharray:none;stroke-dashoffset:0;marker:none;visibility:visible;display:inline;overflow:visible" />
    <path
       d="m 1.5767698,15.14829 c 0.5414765,0.60232 2.0455488,0.874837 2.7125362,-0.291827 0.2908156,-0.508681 0.8611831,-1.93321 3.4058143,-4.22227 0.4273762,-0.384015 0.8800939,-1.2624707 0.4963083,-1.73633 L 7.1980967,7.9050165 C 6.791737,7.4537226 5.6622322,7.6642288 5.1988258,8.2958985 3.8174501,10.185281 1.5606598,11.689279 1.0517309,11.870951 0.07786476,12.21859 0.18747292,13.653437 0.83177262,14.335959 L 1.5767698,15.14829 z"
       id="path2142"
       style="fill:url(#linearGradient4688);fill-opacity:1;fill-rule:nonzero;stroke:#373737;stroke-width:0.66846472;stroke-linecap:round;stroke-linejoin:round;stroke-miterlimit:4;stroke-opacity:1;stroke-dasharray:none;stroke-dashoffset:0;marker:none;visibility:visible;display:inline;overflow:visible" />
    <path
       d="m 5.7773552,9.3986754 c 0,0 -2.9487916,3.0006936 -4.3301606,3.5093726"
       id="path3103"
       style="fill:none;stroke:url(#linearGradient4685);stroke-width:0.66846472;stroke-linecap:round;stroke-linejoin:round;stroke-miterlimit:4;stroke-opacity:1;stroke-dasharray:none;stroke-dashoffset:0;marker:none;visibility:visible;display:inline;overflow:visible" />
    <path
       d="m 1.9782029,14.540776 c 0.5927611,0.71758 1.3690358,0.54017 1.747828,-0.152341 0.3685781,-0.67383 1.1968192,-2.154938 3.1972466,-3.954449 0.3359704,-0.301888 0.9531906,-0.7893223 0.651479,-1.1618382 L 6.7938694,8.491635 C 6.4744102,8.1368574 5.8477847,8.5054943 5.4834848,9.0020713 4.3975438,10.487382 1.9982769,12.267974 1.4136177,12.447721 0.92073859,12.599249 0.8860319,13.365618 1.392541,13.902175 l 0.5856619,0.638601 z"
       id="path2270"
       style="opacity:0.19886367;fill:none;stroke:#bababa;stroke-width:0.66846472;stroke-linecap:butt;stroke-linejoin:miter;stroke-miterlimit:4;stroke-opacity:1;stroke-dasharray:none;stroke-dashoffset:0;marker:none;visibility:visible;display:inline;overflow:visible" />
    <path
       d="M 3.4021806,1.2395865 C 2.8661687,1.2603333 2.331976,1.3974095 1.8543495,1.6681048 L 3.7315063,2.8877338 3.8961692,4.1732888 2.7435291,5.7225473 0.24065334,4.667733 C 0.36684883,5.59426 0.87697108,6.5904856 1.6567541,7.106991 2.4698174,7.7073293 3.3824303,7.671512 4.3572252,7.6014353 4.7671552,7.5412121 6.9588987,8.6562496 6.9588987,8.6562496 L 8.3749994,7.139954 C 8.3749998,7.1400918 6.8271683,5.290815 6.8271683,4.9643995 6.9804672,3.9836407 6.6824512,2.9507775 5.9050563,2.195512 5.2226946,1.5327811 4.2955336,1.2050084 3.4021806,1.2395865 z"
       id="path15"
       style="fill:url(#radialGradient4700);fill-opacity:1;stroke:#7a7a7a;stroke-width:0.60000002;stroke-linecap:butt;stroke-linejoin:round;stroke-miterlimit:4;stroke-opacity:1;stroke-dasharray:none;display:inline;overflow:visible" />
    <path
       d="M 15.293386,12.539588 C 14.681565,11.939191 8.5058744,7.1186835 8.5058744,7.1186835 L 6.8932478,8.7742706 c 0,0 5.4695792,5.3622464 6.0811312,5.9626424 0.611551,0.600658 1.626192,0.595574 2.266757,-0.01108 0.640161,-0.606654 0.663802,-1.585459 0.05225,-2.186246 z"
       id="path68"
       style="fill:url(#linearGradient4001);stroke:#636363;stroke-width:0.52927917;stroke-miterlimit:4;stroke-opacity:1;stroke-dasharray:none;display:inline;overflow:visible" />
  </g>
</svg>

<?xml version="1.0" encoding="UTF-8" standalone="no"?>
<!-- Created with Inkscape (http://www.inkscape.org/) -->
<svg
   xmlns:dc="http://purl.org/dc/elements/1.1/"
   xmlns:cc="http://creativecommons.org/ns#"
   xmlns:rdf="http://www.w3.org/1999/02/22-rdf-syntax-ns#"
   xmlns:svg="http://www.w3.org/2000/svg"
   xmlns="http://www.w3.org/2000/svg"
   xmlns:xlink="http://www.w3.org/1999/xlink"
   xmlns:sodipodi="http://sodipodi.sourceforge.net/DTD/sodipodi-0.dtd"
   xmlns:inkscape="http://www.inkscape.org/namespaces/inkscape"
   width="16px"
   height="16px"
   id="svg4716"
   sodipodi:version="0.32"
   inkscape:version="0.46"
   sodipodi:docname="gnome-desktop-config.svg"
   inkscape:output_extension="org.inkscape.output.svg.inkscape">
  <defs
     id="defs4718">
    <linearGradient
       id="linearGradient3491">
      <stop
         style="stop-color:#7e7e7e;stop-opacity:1;"
         offset="0"
         id="stop3493" />
      <stop
         style="stop-color:#6f6f6f;stop-opacity:1;"
         offset="1"
         id="stop3495" />
    </linearGradient>
    <linearGradient
       inkscape:collect="always"
       xlink:href="#linearGradient3491"
       id="linearGradient4693"
       gradientUnits="userSpaceOnUse"
       gradientTransform="matrix(0.1253371,0,0,0.1253371,-9.7308523e-3,-3.3422994e-2)"
       x1="119.06093"
       y1="7.7596231"
       x2="64.495316"
       y2="65.393135" />
    <linearGradient
       id="linearGradient5546"
       gradientUnits="userSpaceOnUse"
       x1="63.9995"
       y1="3.1001"
       x2="63.9995"
       y2="122.8994">
      <stop
         offset="0"
         style="stop-color:#d8d8d8;stop-opacity:1;"
         id="stop5548" />
      <stop
         offset="1"
         style="stop-color:#ffffff;stop-opacity:1;"
         id="stop5550" />
    </linearGradient>
    <linearGradient
       inkscape:collect="always"
       xlink:href="#linearGradient5546"
       id="linearGradient4691"
       gradientUnits="userSpaceOnUse"
       gradientTransform="matrix(0.3529738,0,0,0.3488491,-0.7165855,7.0308022e-2)"
       x1="39.980453"
       y1="3.4715931"
       x2="39.980453"
       y2="14.369016" />
    <linearGradient
       id="linearGradient3087-697-449-219-528">
      <stop
         id="stop3326"
         offset="0"
         style="stop-color:#484848;stop-opacity:1;" />
      <stop
         style="stop-color:#878787;stop-opacity:1;"
         offset="0"
         id="stop3328" />
      <stop
         id="stop3330"
         offset="0"
         style="stop-color:#6b6b6b;stop-opacity:1;" />
      <stop
         style="stop-color:#4d4d4d;stop-opacity:1;"
         offset="0.75"
         id="stop3332" />
      <stop
         id="stop3334"
         offset="1"
         style="stop-color:#4e4e4e;stop-opacity:1;" />
    </linearGradient>
    <linearGradient
       inkscape:collect="always"
       xlink:href="#linearGradient3087-697-449-219-528"
       id="linearGradient4688"
       gradientUnits="userSpaceOnUse"
       gradientTransform="matrix(0.36121,0,0,0.3610355,-0.8614017,-0.7372702)"
       x1="9.7503242"
       y1="32.28376"
       x2="16.915297"
       y2="39.443218" />
    <linearGradient
       id="linearGradient2257-675-775-707-398"
       inkscape:collect="always">
      <stop
         id="stop3344"
         offset="0"
         style="stop-color:#bababa;stop-opacity:1;" />
      <stop
         id="stop3346"
         offset="1"
         style="stop-color:#bababa;stop-opacity:0;" />
    </linearGradient>
    <linearGradient
       inkscape:collect="always"
       xlink:href="#linearGradient2257-675-775-707-398"
       id="linearGradient4685"
       gradientUnits="userSpaceOnUse"
       gradientTransform="matrix(0.4142578,-1.0838118e-2,1.0843358e-2,0.4140577,-1.2494655,-2.7468101)"
       x1="12.004697"
       y1="35.688461"
       x2="10.650805"
       y2="33.194965" />
    <radialGradient
       gradientUnits="userSpaceOnUse"
       r="38.528702"
       cy="46.2295"
       cx="24.475599"
       id="XMLID_27_">
			<stop
   id="stop41"
   style="stop-color:#C7C7C7"
   offset="0" />

			<stop
   id="stop43"
   style="stop-color:#E8E8E8"
   offset="0.6742" />

			<stop
   id="stop45"
   style="stop-color:#EAEAEA"
   offset="0.7658" />

			<stop
   id="stop47"
   style="stop-color:#F1F1F1"
   offset="0.7988" />

			<stop
   id="stop49"
   style="stop-color:#FCFCFC"
   offset="0.8222" />

			<stop
   id="stop51"
   style="stop-color:#FFFFFF"
   offset="0.8258" />

		</radialGradient>
    <radialGradient
       inkscape:collect="always"
       xlink:href="#XMLID_27_"
       id="radialGradient4700"
       cx="2.3732829"
       cy="6.4451985"
       fx="2.3732829"
       fy="6.4451985"
       r="3.859375"
       gradientTransform="matrix(1.6434439,0,0,1.4989455,-1.7981629,-3.4071505)"
       gradientUnits="userSpaceOnUse" />
    <linearGradient
       y2="97.540298"
       x2="81.368301"
       y1="78.294899"
       x1="98.114304"
       gradientUnits="userSpaceOnUse"
       id="XMLID_28_-22"
       gradientTransform="matrix(1.0737774,0,0,1.0737774,-0.375232,-8.763203)">
			<stop
   id="stop3800"
   style="stop-color:#9a9a9a"
   offset="0.0449" />

			<stop
   id="stop3802"
   style="stop-color:#adadad;stop-opacity:1;"
   offset="0.16850001" />

			<stop
   id="stop3804"
   style="stop-color:#4b4b4b;stop-opacity:1;"
   offset="1" />

		</linearGradient>
    <linearGradient
       inkscape:collect="always"
       xlink:href="#XMLID_28_-22"
       id="linearGradient4001"
       gradientUnits="userSpaceOnUse"
       gradientTransform="matrix(0.1343184,0,0,0.1303509,-0.688891,-3.8103852e-2)"
       x1="98.114304"
       y1="78.294899"
       x2="81.368301"
       y2="97.540298" />
  </defs>
  <sodipodi:namedview
     id="base"
     pagecolor="#ffffff"
     bordercolor="#666666"
     borderopacity="1.0"
     inkscape:pageopacity="0.0"
     inkscape:pageshadow="2"
     inkscape:zoom="22.197802"
     inkscape:cx="8"
     inkscape:cy="8"
     inkscape:current-layer="layer1"
     showgrid="true"
     inkscape:grid-bbox="true"
     inkscape:document-units="px"
     inkscape:window-width="640"
     inkscape:window-height="679"
     inkscape:window-x="0"
     inkscape:window-y="24" />
  <metadata
     id="metadata4721">
    <rdf:RDF>
      <cc:Work
         rdf:about="">
        <dc:format>image/svg+xml</dc:format>
        <dc:type
           rdf:resource="http://purl.org/dc/dcmitype/StillImage" />
      </cc:Work>
    </rdf:RDF>
  </metadata>
  <g
     id="layer1"
     inkscape:label="Layer 1"
     inkscape:groupmode="layer">
    <path
       sodipodi:nodetypes="ccccccccc"
       id="path2144"
       d="M 7.1812046,9.8162814 C 7.5162057,9.532496 12.519931,4.3115976 12.519931,4.3115976 L 13.755341,4.3115976 L 15.69919,2.3062035 L 13.693795,0.30080936 L 11.688401,2.4400027 L 11.688401,3.6609748 L 6.4462745,8.9155152 C 6.2036084,9.1553496 6.8723539,10.077918 7.1812046,9.8162814 z"
       style="fill:url(#linearGradient4691);fill-opacity:1;fill-rule:nonzero;stroke:url(#linearGradient4693);stroke-width:0.60161823000000003;stroke-linecap:butt;stroke-linejoin:round;marker:none;marker-start:none;marker-mid:none;marker-end:none;stroke-miterlimit:4;stroke-dasharray:none;stroke-dashoffset:0;stroke-opacity:1;visibility:visible;display:inline;overflow:visible" />
    <path
       sodipodi:nodetypes="ccccccscc"
       id="path2142"
       d="M 1.5767698,15.14829 C 2.1182463,15.75061 3.6223186,16.023127 4.289306,14.856463 C 4.5801216,14.347782 5.1504891,12.923253 7.6951203,10.634193 C 8.1224965,10.250178 8.5752142,9.3717223 8.1914286,8.897863 L 7.1980967,7.9050165 C 6.791737,7.4537226 5.6622322,7.6642288 5.1988258,8.2958985 C 3.8174501,10.185281 1.5606598,11.689279 1.0517309,11.870951 C 0.077864762,12.21859 0.18747292,13.653437 0.83177262,14.335959 L 1.5767698,15.14829 z"
       style="fill:url(#linearGradient4688);fill-opacity:1;fill-rule:nonzero;stroke:#373737;stroke-width:0.66846472000000001;stroke-linecap:round;stroke-linejoin:round;marker:none;marker-start:none;marker-mid:none;marker-end:none;stroke-miterlimit:4;stroke-dasharray:none;stroke-dashoffset:0;stroke-opacity:1;visibility:visible;display:inline;overflow:visible" />
    <path
       sodipodi:nodetypes="cc"
       id="path3103"
       d="M 5.7773552,9.3986754 C 5.7773552,9.3986754 2.8285636,12.399369 1.4471946,12.908048"
       style="fill:none;fill-opacity:1;fill-rule:nonzero;stroke:url(#linearGradient4685);stroke-width:0.66846472000000001;stroke-linecap:round;stroke-linejoin:round;marker:none;marker-start:none;marker-mid:none;marker-end:none;stroke-miterlimit:4;stroke-dasharray:none;stroke-dashoffset:0;stroke-opacity:1;visibility:visible;display:inline;overflow:visible" />
    <path
       style="opacity:0.19886366999999999;fill:none;fill-opacity:1;fill-rule:nonzero;stroke:#bababa;stroke-width:0.66846472000000001;stroke-linecap:butt;stroke-linejoin:miter;marker:none;marker-start:none;marker-mid:none;marker-end:none;stroke-miterlimit:4;stroke-dasharray:none;stroke-dashoffset:0;stroke-opacity:1;visibility:visible;display:inline;overflow:visible"
       d="M 1.9782029,14.540776 C 2.570964,15.258356 3.3472387,15.080946 3.7260309,14.388435 C 4.094609,13.714605 4.9228501,12.233497 6.9232775,10.433986 C 7.2592479,10.132098 7.8764681,9.6446637 7.5747565,9.2721478 L 6.7938694,8.491635 C 6.4744102,8.1368574 5.8477847,8.5054943 5.4834848,9.0020713 C 4.3975438,10.487382 1.9982769,12.267974 1.4136177,12.447721 C 0.92073859,12.599249 0.8860319,13.365618 1.392541,13.902175 L 1.9782029,14.540776 z"
       id="path2270"
       sodipodi:nodetypes="csccccscc" />
    <path
       style="fill:url(#radialGradient4700);fill-opacity:1;stroke:#7a7a7a;stroke-width:0.59999999999999998;stroke-miterlimit:4;stroke-dasharray:none;stroke-opacity:1;display:inline;overflow:visible;stroke-linecap:butt;stroke-linejoin:round"
       d="M 3.4021806,1.2395865 C 2.8661687,1.2603333 2.331976,1.3974095 1.8543495,1.6681048 L 3.7315063,2.8877338 L 3.8961692,4.1732888 L 2.7435291,5.7225473 L 0.24065334,4.667733 C 0.36684883,5.59426 0.87697108,6.5904856 1.6567541,7.106991 C 2.4698174,7.7073293 3.3824303,7.671512 4.3572252,7.6014353 C 4.7671552,7.5412121 6.9588987,8.6562496 6.9588987,8.6562496 L 8.3749994,7.139954 C 8.3749998,7.1400918 6.8271683,5.290815 6.8271683,4.9643995 C 6.9804672,3.9836407 6.6824512,2.9507775 5.9050563,2.195512 C 5.2226946,1.5327811 4.2955336,1.2050084 3.4021806,1.2395865 z"
       id="path15"
       sodipodi:nodetypes="cccccccccccsc" />
    <path
       style="fill:url(#linearGradient4001);stroke:#636363;stroke-width:0.52927917000000002;stroke-miterlimit:4;stroke-dasharray:none;stroke-opacity:1;display:inline;overflow:visible"
       id="path68"
       d="M 15.293386,12.539588 C 14.681565,11.939191 8.5058744,7.1186835 8.5058744,7.1186835 L 6.8932478,8.7742706 C 6.8932478,8.7742706 12.362827,14.136517 12.974379,14.736913 C 13.58593,15.337571 14.600571,15.332487 15.241136,14.725834 C 15.881297,14.11918 15.904938,13.140375 15.293386,12.539588 z"
       sodipodi:nodetypes="cccssc" />
  </g>
</svg>
